X:6
T: Kerek a káposzta, csipkés a levele
M:4/4
L:1/4
K:D
ddc2 | dBA2 | dGF<E D2 D2 |
ddc2 | dBA2 | dGF<E D2 D2 |
F>G A<A | f f e d | c d e2 | B c d2 |
ddAd | B/B/A/G/ F<D | B<B AG | F D D2 |

